PortableApps/LibreOfficePortable/App/libreoffice/help/media/icon-themes/cmd/sc_dataproviderrefresh.svg

<svg viewBox="0 0 16 16" xmlns="http://www.w3.org/2000/svg"><path d="m3 1v14h4.2636719a5.5 5.5 0 0 1 -1.2636719-3.5 5.5 5.5 0 0 1 5.5-5.5 5.5 5.5 0 0 1 1.5.2148438v-2.5097657l-2.695312-2.7050781z" fill="#fff"/><path d="m3 0c-.554 0-1 .446-1 1v8h-1c-.554 0-1 .446-1 1v5c0 .554.446 1 1 1h2 3.0273438v-4h.0019531a5.5 5.5 0 0 1 -.0292969-.5 5.5 5.5 0 0 1 .6074219-2.5h-3.6074219v-4-4h6v3.5c0 .277.223.5.5.5h3.492188.007812v1.2148438a5.5 5.5 0 0 1 1 .3925781v-2.1074219-.8632812l-3.636719-3.6367188h-.863281zm7 1 3 3h-3z" fill="#808080"/><path d="m0 6v4h6.2148438a5.5 5.5 0 0 1 .3945312-1h-5.609375v-2h7.3554688a5.5 5.5 0 0 1 2.6445312-.9726562v-.0273438zm11.402344 1.1113281c-1.688182-.0990123-3.3295868.9548016-4.3574221 3.1718749a.50029175.50029175 0 1 0 .9082031.419922c.9149987-1.9736814 2.13443-2.6674262 3.390625-2.59375 1.044702.0612719 2.187489.7203363 3.164062 1.890625h-1.007812c-.277 0-.5.223-.5.5s.223.5.5.5h1.923828a.50005.50005 0 0 0 .576172-.580078v-1.919922c0-.277-.223-.5-.5-.5s-.5.223-.5.5v.5371094c-1.055442-1.1477763-2.307863-1.8501345-3.597656-1.9257813zm4.072265 4.8749999a.50005.50005 0 0 0 -.427734.302734c-.914999 1.973682-2.13443 2.66938-3.390625 2.595704-1.042168-.061127-2.1812323-.719373-3.15625-1.884766h1c.277 0 .5-.223.5-.5s-.223-.5-.5-.5h-1.9257812a.50005.50005 0 0 0 -.0742188-.005859.50005.50005 0 0 0 -.5.572265v1.933594c0 .277.223.5.5.5s.5-.223.5-.5v-.541016c1.0555987 1.146593 2.308609 1.848226 3.597656 1.923828 1.688182.09901 3.327634-.954802 4.355469-3.171874a.50005.50005 0 0 0 -.478516-.72461z" fill="#4d82b8"/><path d="m1 7v2h4v-2zm5 0v2h.6074219a5.5 5.5 0 0 1 .2753906-.4765625 5.5 5.5 0 0 1 1.4667969-1.5234375zm-5 3v2h4v-2zm5 0v1.5a5.5 5.5 0 0 1 .2148438-1.5zm0 1.5v.5h.0273438a5.5 5.5 0 0 1 -.0273438-.5zm-5 1.5v2h4v-2zm5 0v2h.0273438v-2z" fill="#fff"/></svg>

<svg viewBox="0 0 16 16" xmlns="http://www.w3.org/2000/svg">
  <path
     style="fill:#ffffff"
     d="M 3 1 L 3 15 L 7.2636719 15 A 5.5 5.5 0 0 1 6 11.5 A 5.5 5.5 0 0 1 11.5 6 A 5.5 5.5 0 0 1 13 6.2148438 L 13 3.7050781 L 10.304688 1 L 3 1 z "
     id="path2" />
  <path
     style="fill:#808080"
     d="M 3 0 C 2.446 0 2 0.446 2 1 L 2 9 L 1 9 C 0.446 9 0 9.446 0 10 L 0 15 C 0 15.554 0.446 16 1 16 L 3 16 L 6.0273438 16 L 6.0273438 12 L 6.0292969 12 A 5.5 5.5 0 0 1 6 11.5 A 5.5 5.5 0 0 1 6.6074219 9 L 3 9 L 3 5 L 3 1 L 9 1 L 9 4.5 C 9 4.777 9.223 5 9.5 5 L 12.992188 5 L 13 5 L 13 6.2148438 A 5.5 5.5 0 0 1 14 6.6074219 L 14 4.5 L 14 3.6367188 L 10.363281 0 L 9.5 0 L 3 0 z M 10 1 L 13 4 L 10 4 L 10 1 z "
     id="path4" />
  <path
     style="fill:#4d82b8"
     d="M 0 6 L 0 10 L 6.2148438 10 A 5.5 5.5 0 0 1 6.609375 9 L 1 9 L 1 7 L 8.3554688 7 A 5.5 5.5 0 0 1 11 6.0273438 L 11 6 L 0 6 z M 11.402344 7.1113281 C 9.714162 7.0123158 8.0727572 8.0661297 7.0449219 10.283203 A 0.50029175 0.50029175 0 1 0 7.953125 10.703125 C 8.8681237 8.7294436 10.087555 8.0356988 11.34375 8.109375 C 12.388452 8.1706469 13.531239 8.8297113 14.507812 10 L 13.5 10 C 13.223 10 13 10.223 13 10.5 C 13 10.777 13.223 11 13.5 11 L 15.423828 11 A 0.50005 0.50005 0 0 0 16 10.419922 L 16 8.5 C 16 8.223 15.777 8 15.5 8 C 15.223 8 15 8.223 15 8.5 L 15 9.0371094 C 13.944558 7.8893331 12.692137 7.1869749 11.402344 7.1113281 z M 15.474609 11.986328 A 0.50005 0.50005 0 0 0 15.046875 12.289062 C 14.131876 14.262744 12.912445 14.958442 11.65625 14.884766 C 10.614082 14.823639 9.4750177 14.165393 8.5 13 L 9.5 13 C 9.777 13 10 12.777 10 12.5 C 10 12.223 9.777 12 9.5 12 L 7.5742188 12 A 0.50005 0.50005 0 0 0 7.5 11.994141 A 0.50005 0.50005 0 0 0 7 12.566406 L 7 14.5 C 7 14.777 7.223 15 7.5 15 C 7.777 15 8 14.777 8 14.5 L 8 13.958984 C 9.0555987 15.105577 10.308609 15.80721 11.597656 15.882812 C 13.285838 15.981822 14.92529 14.92801 15.953125 12.710938 A 0.50005 0.50005 0 0 0 15.474609 11.986328 z "
     id="path8" />
  <path
     style="fill:#ffffff"
     d="M 1 7 L 1 9 L 5 9 L 5 7 L 1 7 z M 6 7 L 6 9 L 6.6074219 9 A 5.5 5.5 0 0 1 6.8828125 8.5234375 A 5.5 5.5 0 0 1 8.3496094 7 L 6 7 z M 1 10 L 1 12 L 5 12 L 5 10 L 1 10 z M 6 10 L 6 11.5 A 5.5 5.5 0 0 1 6.2148438 10 L 6 10 z M 6 11.5 L 6 12 L 6.0273438 12 A 5.5 5.5 0 0 1 6 11.5 z M 1 13 L 1 15 L 5 15 L 5 13 L 1 13 z M 6 13 L 6 15 L 6.0273438 15 L 6.0273438 13 L 6 13 z "
     id="path10" />
</svg>
